!!!COM: Bach, Johann Sebastian
!!!CDT: 1685/3//-1750/7/28/
!!!OTL@@DE: Du Lebensfuerst, Herr Jesu Christ
!!!AGN: 4-Part Chorale
!!!SCT: BH 361
!!!SCT: BWV 248
**harm	**root	**kern	**kern	**kern	**kern
!	!	!bass	!tenor	!alto	!soprno
*	*Iorgan	*Iorgan	*Iorgan	*Iorgan	*Iorgan
*M4/4	*M4/4	*M4/4	*M4/4	*M4/4	*M4/4
*met(c)	*met(c)	*met(c)	*met(c)	*met(c)	*met(c)
*MM60	*MM60	*MM60	*MM60	*MM60	*MM60
*k[f#c#]	*k[f#c#]	*k[f#c#]	*k[f#c#]	*k[f#c#]	*k[f#c#]
*D:	*D:	*D:	*D:	*D:	*D:
*>[A,A,B]	*>[A,A,B]	*>[A,A,B]	*>[A,A,B]	*>[A,A,B]	*>[A,A,B]
*>A	*>A	*>A	*>A	*>A	*>A
I	4GG	8D	4F#	4A	4d
.	.	8C#	.	.	.
=1	=1	=1	=1	=1	=1
vi	4EE	4BB	8F#	4B	4d
.	.	.	4G	.	.
V7	4DD	4AA	.	4c#	4e
.	.	.	8A	.	.
I	8GG	4D	8F#	8A	8f#
V7d/V	8AA	.	8E	8B	8g#
Vb	4DD	8C#	4E	4c#	4a
.	.	8D	.	.	.
=2	=2	=2	=2	=2	=2
Vc	4DD	4E	4E	8B	4a
.	.	.	.	8c#	.
V7/V	4AA	4EE	4E	4d	4g#
V;	4DD;	4AA;	4E;	4c#;	4a;
V/vi	4BB	4AA#	8F#	4c#	4f#
.	.	.	8E	.	.
=3	=3	=3	=3	=3	=3
IVb	4CC	8BB	8D	4B	4g
.	.	8C#	8E	.	.
I	8GG	8D	8F#	8A	4f#
IV7	8CC	8GG	8G	8B	.
V7d	4DD	8G	4A	4c#	4e
.	.	8F#	.	.	.
I	4GG	8E	4A	4d	4f#
.	.	8D	.	.	.
=4	=4	=4	=4	=4	=4
V	2DD	4A	4.A	4d	2e
.	.	4AA	.	4c#	.
.	.	.	8G	.	.
I;	4GG;	4D;	4F#;	4A;	4d;
=:|!	=:|!	=:|!	=:|!	=:|!	=:|!
*>B	*>B	*>B	*>B	*>B	*>B
V	4DD	4AA	8A	8c#	4e
.	.	.	8B	8d	.
=5	=5	=5	=5	=5	=5
V	4DD	8A	8c#	4.e	4e
.	.	8G	8B	.	.
viio/ii	4GG#	4F#	4A	.	4f#
.	.	.	.	8d#	.
ii	4AA	4E	4B	8e	4g
.	.	.	.	8d#	.
viioD7/vi	4DD#	4AA#	4c#	4e	4g
!!linebreak: 2
=6	=6	=6	=6	=6	=6
vi	4EE	4BB	4F#	4e	8f#
.	.	.	.	.	8e
V/ii	4EE	4BB	8B	4d#	4f#
.	.	.	8A	.	.
ii;	4AA;	4EE;	4G;	4B;	4e;
vi	8EE	8BB	8D	8B	4f#
V7c/vi	8BB	8C#	8E	8A#	.
=7	=7	=7	=7	=7	=7
vib	4EE	4D	8F#	4B	4f#
.	.	.	8G	.	.
V7b/ii	4EE	4D#	8A	4B	4f#
.	.	.	8B	.	.
ii	4AA	4E	4G	8B	8g
.	.	.	.	8c#	8a
V7b/V/vi	4FF#	4E#	4G#	8d	4b
.	.	.	.	8c#	.
=8	=8	=8	=8	=8	=8
V/vi	4BB	4F#	4F#	8c#	4b
.	.	.	.	8d	.
V7/vi	4BB	4FF#	4F#	4e	4a#
vi;	4EE;	4BB;	4F#;	4d;	4b;
V	4DD	8A	4A	4e	4cc#
.	.	8G	.	.	.
=9	=9	=9	=9	=9	=9
Ib	4GG	8F#	4A	8d	4dd
.	.	8E	.	8e	.
I	4GG	8D	4d	4f#	4f#
.	.	8C#	.	.	.
IV7b	8CC	8BB	8D	8f#	4g
viio	8FF#	8C#	8E	8e	.
I	8GG	8D	4F#	8e	4f#
vi	8EE	8BB	.	8d	.
=10	=10	=10	=10	=10	=10
V7b/V	2AA	8GG#	8B	2d	2e
.	.	8FF#	8A	.	.
.	.	8GG#	8B	.	.
.	.	8EE	8G#	.	.
V;	4DD;	4AA;	4A;	4c#;	4e;
Ib	4GG	4FF#	4A	8d	4a
.	.	.	.	8c#	.
=11	=11	=11	=11	=11	=11
IV	4CC	4GG	8A	4B	4b
.	.	.	8G	.	.
V7	4DD	4AA	8G	4c#	4a
.	.	.	8F#	.	.
IV7b	8CC	8BB	8F#	8d	4g
vii	8FF#	8C#	8E	8e	.
I	4GG	4D	4D	4A	8f#
.	.	.	.	.	8g
=12	=12	=12	=12	=12	=12
ii7b	4AA	4GG	8D	4B	2e
.	.	.	16C#	.	.
.	.	.	16BB	.	.
V	4DD	4AA	4C#	4A	.
I;	4GG;	4DD;	4F#;	4A;	4d;
==	==	==	==	==	==
*-	*-	*-	*-	*-	*-
!!chor2scor: -l 2 -o %b.pmx
!!!YEC: Copyright 1994, David Huron
!!!YEC: Changes/Additions 2001 by Craig Stuart Sapp
!!!YEN: United States of America
!!!SMA: 371 Bach Chorales, edited by Ludwig Erk, C.F. Peters
!!!PDT: 1850, 1865
!!!ONB: Harmony and Root analysis done manually
